src/assets/Checklist.svg

<svg fill="none" height="134" viewBox="0 0 121 134" width="121" xmlns="http://www.w3.org/2000/svg" xmlns:xlink="http://www.w3.org/1999/xlink"><filter id="a" color-interpolation-filters="sRGB" filterUnits="userSpaceOnUse" height="107.081" width="103.304" x="7.75708" y="16.7656"><feFlood flood-opacity="0" result="BackgroundImageFix"/><feColorMatrix in="SourceAlpha" result="hardAlpha" type="matrix" values="0 0 0 0 0 0 0 0 0 0 0 0 0 0 0 0 0 0 127 0"/><feOffset dy="4"/><feGaussianBlur stdDeviation="2"/><feComposite in2="hardAlpha" operator="out"/><feColorMatrix type="matrix" values="0 0 0 0 0 0 0 0 0 0 0 0 0 0 0 0 0 0 0.25 0"/><feBlend in2="BackgroundImageFix" mode="normal" result="effect1_dropShadow_3015_573"/><feBlend in="SourceGraphic" in2="effect1_dropShadow_3015_573" mode="normal" result="shape"/></filter><filter id="b" color-interpolation-filters="sRGB" filterUnits="userSpaceOnUse" height="30.0942" width="32.3972" x="66.291" y="16.3745"><feFlood flood-opacity="0" result="BackgroundImageFix"/><feColorMatrix in="SourceAlpha" result="hardAlpha" type="matrix" values="0 0 0 0 0 0 0 0 0 0 0 0 0 0 0 0 0 0 127 0"/><feOffset dx="2" dy="4"/><feGaussianBlur stdDeviation="1"/><feComposite in2="hardAlpha" operator="out"/><feColorMatrix type="matrix" values="0 0 0 0 0 0 0 0 0 0 0 0 0 0 0 0 0 0 0.25 0"/><feBlend in2="BackgroundImageFix" mode="normal" result="effect1_dropShadow_3015_573"/><feBlend in="SourceGraphic" in2="effect1_dropShadow_3015_573" mode="normal" result="shape"/></filter><g opacity=".8"><path d="m110.834 41.771-54.0226-30.7621c-2.5413-1.44712-5.7745-.5601-7.2217 1.9812l-42.39584 74.453c-1.44711 2.5414-.56008 5.7746 1.98124 7.2217l54.0225 30.7622c2.5414 1.447 5.7746.56 7.2217-1.981l42.3957-74.4533c1.447-2.5413.56-5.7746-1.981-7.2217z" fill="#778cc2"/><path d="m107.06 46.6939-52.5532-29.9253-41.5557 72.9776 52.553 29.9258z" fill="#f6f4f5"/><g filter="url(#a)"><path d="m64.7725 115.847-53.0154-28.7537 15.4324-23.4052c1.4121-2.1401 1.6579-2.538 2.9273-4.7671l24.3914-42.1553 52.5528 29.9253z" fill="#f6f4f5"/></g><g filter="url(#b)"><path d="m66.2911 26.1449 25.1547 14.3239s5.806-8.3277 1.8793-10.9235c-3.9267-2.5957 1.8047-7.7352-5.5284-11.9109s-8.8189 3.5632-12.9003 1.2391-8.6053 7.2714-8.6053 7.2714z" fill="#df755f"/></g><path d="m84.5095 23.3801c1.2215.6955 2.7755.2692 3.471-.9522.6956-1.2215.2692-2.7755-.9522-3.471-1.2215-.6956-2.7755-.2692-3.471.9522-.6955 1.2215-.2692 2.7755.9522 3.471z" fill="#f6f4f5"/><g stroke-miterlimit="10"><path d="m60.8381 35.6058-7.1052-4.046-4.0459 7.1052 7.1052 4.046z" stroke="#191818"/><path d="m52.6631 49.9624-7.1052-4.0459-4.046 7.1052 7.1053 4.046z" stroke="#191818"/><path d="m44.3215 64.6114-7.1052-4.046-4.0459 7.1053 7.1052 4.0459z" stroke="#191818"/><path d="m35.176 79.6258-7.1052-4.046-4.0459 7.1053 7.1052 4.0459z" stroke="#191818"/><path d="m54.6884 34.9164-.0629 3.3378 10.7734-3.5645" stroke="#df755f" stroke-width="4"/><path d="m46.6247 49.0773-.063 3.3378 10.7718-3.5616" stroke="#df755f" stroke-width="4"/><path d="m38.2284 63.8224-.0629 3.3378 10.7717-3.5616" stroke="#df755f" stroke-width="4"/><path d="m29.4792 79.1871-.063 3.3379 10.7735-3.5646" stroke="#df755f" stroke-width="4"/></g><path d="m63.4635 42.1649 20.9668 11.8811 5.9629 3.3955c.9407.5356 1.7754-.9235.8318-1.4608l-20.9667-11.8811-5.963-3.3955c-.9407-.5356-1.7725.9251-.8318 1.4608z" fill="#51514f"/><path d="m55.2581 55.3789c7.0054 4.2212 13.9204 8.1394 20.786 12.0489 2.0472 1.0884 4.5047 2.4981 6.5657 3.5531.9599.4885 1.7976-.9689.8319-1.4608-7.0586-4.0464-14.2929-7.9427-21.374-12.0627-2.004-1.1643-3.9976-2.3446-5.9807-3.541-.9274-.559-1.7593.9018-.8318 1.4608z" fill="#51514f"/><path d="m54.0454 58.7661c5.6761 3.0001 11.2544 6.1765 16.7347 9.5293 1.5711.9643 3.2488 1.739 4.8002 2.7333.9112.5808 1.7385-.8789.8302-1.458-5.6548-3.3862-11.0597-6.4639-16.6603-9.6531-1.6133-.8902-3.2348-1.7658-4.8646-2.6269-.9545-.5048-1.7892.9543-.8318 1.4608z" fill="#51514f"/><path d="m61.56 45.0391 9.8837 5.628c.9378.534 1.7725-.9251.8318-1.4608l-9.8837-5.628c-.9407-.5357-1.7725.9251-.8318 1.4608z" fill="#51514f"/><path d="m47.9443 68.8484 24.0999 13.7233c.9408.5356 1.7726-.9251.8319-1.4608l-24.1-13.7233c-.9407-.5357-1.7725.9251-.8318 1.4608z" fill="#51514f"/><path d="m46.1329 72.3011 20.3107 11.5656c.9378.534 1.7725-.9251.8318-1.4608l-20.3107-11.5655c-.9378-.5341-1.7725.925-.8318 1.4607z" fill="#51514f"/><path d="m39.1892 85.7992c7.4371 4.0157 14.781 8.1975 22.0315 12.5454 2.0591 1.2396 4.113 2.4934 6.1615 3.7604.9208.57 1.7497-.892.8319-1.461-7.1859-4.4479-14.4733-8.7266-21.8622-12.836-2.0999-1.1725-4.2097-2.3301-6.3292-3.4725-.9511-.5107-1.7859.9484-.8318 1.4608z" fill="#51514f"/><path d="m38.1015 89.5981 15.4346 8.789c.9408.5357 1.7726-.9251.8319-1.4608l-15.4347-8.7889c-.9407-.5357-1.7725.9251-.8318 1.4607z" fill="#51514f"/></g></svg>

<svg width="121" height="134" viewBox="0 0 121 134" fill="none" xmlns="http://www.w3.org/2000/svg">
<g opacity="0.8">
<path d="M110.834 41.771L56.8114 11.0089C54.2701 9.56178 51.0369 10.4488 49.5897 12.9901L7.19386 87.4431C5.74675 89.9845 6.63378 93.2177 9.1751 94.6648L63.1976 125.427C65.739 126.874 68.9722 125.987 70.4193 123.446L112.815 48.9927C114.262 46.4514 113.375 43.2181 110.834 41.771Z" fill="#778CC2"/>
<path d="M107.06 46.6939L54.5068 16.7686L12.9511 89.7462L65.5041 119.672L107.06 46.6939Z" fill="#F6F4F5"/>
<g filter="url(#filter0_d_3015_573)">
<path d="M64.7725 115.847L11.7571 87.0933L27.1895 63.6881C28.6016 61.548 28.8474 61.1501 30.1168 58.921L54.5082 16.7657L107.061 46.691L64.7725 115.847Z" fill="#F6F4F5"/>
</g>
<g filter="url(#filter1_d_3015_573)">
<path d="M66.2911 26.1449L91.4458 40.4688C91.4458 40.4688 97.2518 32.1411 93.3251 29.5453C89.3984 26.9496 95.1298 21.8101 87.7967 17.6344C80.4636 13.4587 78.9778 21.1976 74.8964 18.8735C70.815 16.5494 66.2911 26.1449 66.2911 26.1449Z" fill="#DF755F"/>
</g>
<path d="M84.5095 23.3801C85.731 24.0756 87.285 23.6493 87.9805 22.4279C88.6761 21.2064 88.2497 19.6524 87.0283 18.9569C85.8068 18.2613 84.2528 18.6877 83.5573 19.9091C82.8618 21.1306 83.2881 22.6846 84.5095 23.3801Z" fill="#F6F4F5"/>
<path d="M60.8381 35.6058L53.7329 31.5598L49.687 38.665L56.7922 42.711L60.8381 35.6058Z" stroke="#191818" stroke-miterlimit="10"/>
<path d="M52.6631 49.9624L45.5579 45.9165L41.5119 53.0217L48.6172 57.0677L52.6631 49.9624Z" stroke="#191818" stroke-miterlimit="10"/>
<path d="M44.3215 64.6114L37.2163 60.5654L33.1704 67.6707L40.2756 71.7166L44.3215 64.6114Z" stroke="#191818" stroke-miterlimit="10"/>
<path d="M35.176 79.6258L28.0708 75.5798L24.0249 82.6851L31.1301 86.731L35.176 79.6258Z" stroke="#191818" stroke-miterlimit="10"/>
<path d="M54.6884 34.9164L54.6255 38.2542L65.3989 34.6897" stroke="#DF755F" stroke-width="4" stroke-miterlimit="10"/>
<path d="M46.6247 49.0773L46.5617 52.4151L57.3335 48.8535" stroke="#DF755F" stroke-width="4" stroke-miterlimit="10"/>
<path d="M38.2284 63.8224L38.1655 67.1602L48.9372 63.5986" stroke="#DF755F" stroke-width="4" stroke-miterlimit="10"/>
<path d="M29.4792 79.1871L29.4162 82.525L40.1897 78.9604" stroke="#DF755F" stroke-width="4" stroke-miterlimit="10"/>
<path d="M63.4635 42.1649L84.4303 54.046L90.3932 57.4415C91.3339 57.9771 92.1686 56.518 91.225 55.9807L70.2583 44.0996L64.2953 40.7041C63.3546 40.1685 62.5228 41.6292 63.4635 42.1649Z" fill="#51514F"/>
<path d="M55.2581 55.3789C62.2635 59.6001 69.1785 63.5183 76.0441 67.4278C78.0913 68.5162 80.5488 69.9259 82.6098 70.9809C83.5697 71.4694 84.4074 70.012 83.4417 69.5201C76.3831 65.4737 69.1488 61.5774 62.0677 57.4574C60.0637 56.2931 58.0701 55.1128 56.087 53.9164C55.1596 53.3574 54.3277 54.8182 55.2552 55.3772L55.2581 55.3789Z" fill="#51514F"/>
<path d="M54.0454 58.7661C59.7215 61.7662 65.2998 64.9426 70.7801 68.2954C72.3512 69.2597 74.0289 70.0344 75.5803 71.0287C76.4915 71.6095 77.3188 70.1498 76.4105 69.5707C70.7557 66.1845 65.3508 63.1068 59.7502 59.9176C58.1369 59.0274 56.5154 58.1518 54.8856 57.2907C53.9311 56.7859 53.0964 58.245 54.0538 58.7515L54.0454 58.7661Z" fill="#51514F"/>
<path d="M61.56 45.0391L71.4437 50.6671C72.3815 51.2011 73.2162 49.742 72.2755 49.2063L62.3918 43.5783C61.4511 43.0426 60.6193 44.5034 61.56 45.0391Z" fill="#51514F"/>
<path d="M47.9443 68.8484L72.0442 82.5717C72.985 83.1073 73.8168 81.6466 72.8761 81.1109L48.7761 67.3876C47.8354 66.8519 47.0036 68.3127 47.9443 68.8484Z" fill="#51514F"/>
<path d="M46.1329 72.3011L66.4436 83.8667C67.3814 84.4007 68.2161 82.9416 67.2754 82.4059L46.9647 70.8404C46.0269 70.3063 45.1922 71.7654 46.1329 72.3011Z" fill="#51514F"/>
<path d="M39.1892 85.7992C46.6263 89.8149 53.9702 93.9967 61.2207 98.3446C63.2798 99.5842 65.3337 100.838 67.3822 102.105C68.303 102.675 69.1319 101.213 68.2141 100.644C61.0282 96.1961 53.7408 91.9174 46.3519 87.808C44.252 86.6355 42.1422 85.4779 40.0227 84.3355C39.0716 83.8248 38.2368 85.2839 39.1909 85.7963L39.1892 85.7992Z" fill="#51514F"/>
<path d="M38.1015 89.5981L53.5361 98.3871C54.4769 98.9228 55.3087 97.462 54.368 96.9263L38.9333 88.1374C37.9926 87.6017 37.1608 89.0625 38.1015 89.5981Z" fill="#51514F"/>
</g>
<defs>
<filter id="filter0_d_3015_573" x="7.75708" y="16.7656" width="103.304" height="107.081" filterUnits="userSpaceOnUse" color-interpolation-filters="sRGB">
<feFlood flood-opacity="0" result="BackgroundImageFix"/>
<feColorMatrix in="SourceAlpha" type="matrix" values="0 0 0 0 0 0 0 0 0 0 0 0 0 0 0 0 0 0 127 0" result="hardAlpha"/>
<feOffset dy="4"/>
<feGaussianBlur stdDeviation="2"/>
<feComposite in2="hardAlpha" operator="out"/>
<feColorMatrix type="matrix" values="0 0 0 0 0 0 0 0 0 0 0 0 0 0 0 0 0 0 0.25 0"/>
<feBlend mode="normal" in2="BackgroundImageFix" result="effect1_dropShadow_3015_573"/>
<feBlend mode="normal" in="SourceGraphic" in2="effect1_dropShadow_3015_573" result="shape"/>
</filter>
<filter id="filter1_d_3015_573" x="66.291" y="16.3745" width="32.3972" height="30.0942" filterUnits="userSpaceOnUse" color-interpolation-filters="sRGB">
<feFlood flood-opacity="0" result="BackgroundImageFix"/>
<feColorMatrix in="SourceAlpha" type="matrix" values="0 0 0 0 0 0 0 0 0 0 0 0 0 0 0 0 0 0 127 0" result="hardAlpha"/>
<feOffset dx="2" dy="4"/>
<feGaussianBlur stdDeviation="1"/>
<feComposite in2="hardAlpha" operator="out"/>
<feColorMatrix type="matrix" values="0 0 0 0 0 0 0 0 0 0 0 0 0 0 0 0 0 0 0.25 0"/>
<feBlend mode="normal" in2="BackgroundImageFix" result="effect1_dropShadow_3015_573"/>
<feBlend mode="normal" in="SourceGraphic" in2="effect1_dropShadow_3015_573" result="shape"/>
</filter>
</defs>
</svg>
